!!!!SEGMENT: pl-kk--kk-i-382--066_anonim--offertorium-nro-7.krn
!!!cenid: 18xx:1568
!!!COM: Anonim
!!!COM-rismID: pe30004985
!!!CDT:
!!!CNT:
!!!OTL: Offertorium Nro 7
!!!PDT:
!!!AGN: Sacred
!!!SMS-siglum: PL-Kk
!!!SMS-shelfmark: Kk.I.382
!!!SMS-shelfwork: 052 W
!!!SMS-variant:
!!!SMS-altvar:
!!!NIFC-rismSourceID: 1001141098
!!!NIFC-islandoraID: pl-kk:6162
!!!URL-pdf-islandora: https://repozytorium.nifc.pl/islandora/object/pl-kk%3A6162/datastream/PDF/view
!!!URL-scan: https://polish.musicsources.pl/pl/lokalizacje/galeria/rekopisy/5994 @EN{Scan on Polish Music Sources Website} @PL{Skany w portalu Dziedzictwo Muzyki Polskiej w otwartym dostępie}
!!!ONB-nifc: UWAGA: obsada: S/T1, A/B1, T2, B2. Skany 0043, 0187-0188, 0115, 0264-0265
!!!AIN: 1 alto 1 bass 2 tenor
!!!key:
**kern	**text	**kern	**text	**kern	**text	**kern	**text
*part4	*part4	*part3	*part3	*part2	*part2	*part1	*part1
*staff4	*staff4	*staff3	*staff3	*staff2	*staff2	*staff1	*staff1
*Ibass	*	*Itenor	*	*Ialto	*	*Itenor	*
*I"Basso II	*	*I"Tenore II	*	*I"Alto vel Basso I	*	*I"Soprano vel Tenore I	*
*I'B 2	*	*I'T 2	*	*I'A vel B 1	*	*I'S vel T 1	*
*clefF4	*	*clefC4	*	*clefC3	*	*clefC1	*
*k[b-]	*	*k[b-]	*	*k[b-]	*	*k[b-]	*
*F:	*	*F:	*	*F:	*	*F:	*
*M3/2	*	*M3/2	*	*M3/2	*	*M3/2	*
=1	=1	=1	=1	=1	=1	=1	=1
*all\right	*	*all\right	*	*all\right	*	*all\right	*
*2\right	*	*2\right	*	*2\right	*	*rscale:1/2	*
!LO:TX:a:t=de Martiribus.\n Nro. 7.\nin F.	!	!LO:TX:a:t=Nro 7.	!	!LO:TX:a:B:t=Nro. 7. de Martiribus.\nin F.	!	!LO:TX:a:t=Nro 7	!
2F\	De-	2A\	De-	2a\	De-	2cc\	De-
2F\	-us	2c\	-us	2a\	us	2ff\	-us
2C/	tu-	2c\	tu-	2g\	tu-	2ee\	tu-
=2	=2	=2	=2	=2	=2	=2	=2
(2F\	-o-	1.c	-o-	(2a\	-o-	(2ff\	-o-
2G\)	.	.	.	2g\)	.	4eeL\	.
.	.	.	.	.	.	4dd\J)	.
2A\	-rum	.	.	2f\	-rum	2cc\	-rum
=3	=3	=3	=3	=3	=3	=3	=3
(2B-\	mi-	2f\	-rum	(2a\	mi-	(4ddL\	mi-
.	.	.	.	.	.	4ccJ\)	.
*	*	*	*	*	*	*2\right	*
2c\)	.	2.f\	mi-	2g\)	.	1b-	-li-
2C/	-li-	.	.	2g\	-li-	.	.
.	.	4e\	-li-	.	.	.	.
=4	=4	=4	=4	=4	=4	=4	=4
1.F	-tum	1f	-tum	1.a	-tum	1a	-tum
.	.	2r	.	.	.	2r	.
!	!	!	!	!LO:LB:g=original	!	!	!
=5	=5	=5	=5	=5	=5	=5	=5
2F\	sors	2c\	sors	2a\	sors	2a\	sors
2D\	et	2d\	et	2f\	et	2bn\	et
2D\	co-	2d\	co-	2f\	co-	2b\	co-
=6	=6	=6	=6	=6	=6	=6	=6
1C	-ro-	(2.e\	-ro-	(2.e\	-ro-	(2.cc\	-ro-
.	.	4d\)	.	4f\)	.	4dd\)	.
2C/	-na	2c\	-na	2g\	-na	2ee\	-na
!	!	!LO:LB:g=original	!	!	!	!LO:LB:g=original	!
=7	=7	=7	=7	=7	=7	=7	=7
(2F\	pre-	1c	pre-	(2a\	pre-	(4ffL\	pre-
.	.	.	.	.	.	4eeJ\)	.
2G\)	.	.	.	2g\)	.	1dd	-mi-
2GG/	-mi-	2Bn\	-mi-	2g\	-mi-	.	.
!LO:LB:g=original	!	!	!	!	!	!	!
=8	=8	=8	=8	=8	=8	=8	=8
1.C	-um	1c	-um	1.g	-um	1cc	-um
.	.	2r	.	.	.	2r	.
=9	=9	=9	=9	=9	=9	=9	=9
2A\	lau-	2e\	lau-	2a\	lau-	2cc#X\	lau-
2A\	-des	2e\	-des	2a\	-des	2cc#\	-des
2G\	ca-	2e\	ca-	2a\	ca-	2cc#\	ca-
=10	=10	=10	=10	=10	=10	=10	=10
1F	-nen-	1d	-nen-	1a	-nen-	1dd	-nen-
2E\	-tes	2c#X\	-tes	2g\	-tes	2ee\	-tes
!	!	!	!	!LO:LB:g=original	!	!	!
=11	=11	=11	=11	=11	=11	=11	=11
(2.D\	mar-	1d	mar-	2.f\	mar-	1ff	mar-
4E\)	.	.	.	4g\	.	.	.
(4F\	-ti-	2d\	ti-	4a\	.	2ff\	-ti-
4G\)	.	.	.	4f\	-ti-	.	.
=12	=12	=12	=12	=12	=12	=12	=12
!	!	!	!	!LO:SIC:v:l:s=-ris.:t=dopisane ołówkiem	!	!	!
1.A	-ris.	1.c#X	-rum	1.e	-rum	1.ee	-ris
!	!	!	!	!	!	!LO:LB:g=original	!
=13	=13	=13	=13	=13	=13	=13	=13
2A\	ab-	2e\	lau-	2e\	ab-	2a\	ab-
2G\	-sol-	2e\	-des	2g\	-sol-	2bn\	-sol-
2G\	-ve	2e\	ca-	2a\	-ve	2cc#X\	-ve
=14	=14	=14	=14	=14	=14	=14	=14
(2.F\	ne-	1f	-nen-	(2.f\	ne-	(2.dd\	ne-
4E\)	.	.	.	4g\)	.	4ee\)	.
!	!	!LO:TX:b:t=V&colon;S.	!	!	!	!	!
2D\	-xu	2f\	-tes	2a\	-xu	2ff\	-xu
!	!	!LO:PB:g=original	!	!	!	!	!
=15	=15	=15	=15	=15	=15	=15	=15
2G\	cri-	(2d\	cri-	(4g\	cri-	(4eeL\	cri-
.	.	.	.	4f\	.	4ddJ\)	.
2A\	.	2.e\)	.	2a\)	.	1cc#X	-mi-
2AA/	-mi-	.	.	2a\	-mi-	.	.
.	.	4e\	-mi-	.	.	.	.
!LO:LB:g=original	!	!	!	!	!	!	!
=16	=16	=16	=16	=16	=16	=16	=16
1.D	-nis	1f	-nis	1.a	-nis	1dd	-nis
.	.	2r	.	.	.	2r	.
!	!	!	!	!LO:LB:g=original	!	!	!
=17	=17	=17	=17	=17	=17	=17	=17
2F\	lau-	2f\	lau-	2a\	lau-	2ccn\	lau-
2F\	-des	2f\	-des	2a\	-des	2cc\	-des
2F\	ca-	2f\	ca-	2a\	ca-	2ff\	ca-
=18	=18	=18	=18	=18	=18	=18	=18
1B-	-nen-	1f	-nen-	1b-	-nen-	1dd	-nen-
2F\	-tes	2f\	-tes	2a\	-tes	2cc\	-tes
!	!	!	!	!	!	!LO:LB:g=original	!
=19	=19	=19	=19	=19	=19	=19	=19
(2G\	mar-	1f	mar-	(4g\	mar-	(4b-L\	mar-
.	.	.	.	4f\	.	4aJ\)	.
2A\)	.	.	.	2f\)	.	(2.a\	-ti-
2B-\	-ti-	2d\	-ti-	2f\	-ti-	.	.
.	.	.	.	.	.	4g\)	.
=20	=20	=20	=20	=20	=20	=20	=20
1.c	-ris	1.e	-ris	1.e	-ris,	1g	-ris
!	!	!	!	!LO:TX:b:t=V&colon;S&colon;	!	!	!
.	.	.	.	.	.	2r	.
!	!	!	!	!LO:PB:g=original	!	!	!
=21	=21	=21	=21	=21	=21	=21	=21
2F\	ab-	2A\	ab-	2f\	ab-	2cc\	ab-
2A\	-sol-	2A\	-sol-	2f\	-sol-	2cc\	-sol-
2F\	-ve	2A\	-ve	2f\	-ve	2cc\	-ve
=22	=22	=22	=22	=22	=22	=22	=22
(2BB-/	ne-	1B-X	ne-	1f	ne-	1dd	ne-
2D/)	.	.	.	.	.	.	.
2BB-/	-xu	2B-\	-xu	2f\	-xu	2dd\	-xu
!	!	!LO:LB:g=original	!	!	!	!	!
=23	=23	=23	=23	=23	=23	=23	=23
2GG/	ab-	2Bn\	ab-	2g\	ab-	2dd\	ab-
!LO:SIC:v:s=BBn:t=kasownik dopisany ołówkiem	!	!	!	!	!	!	!
2BB-/	-sol-	2B\	-sol-	2g\	-sol-	2dd\	-sol-
2GG/	-ve	2B\	-ve	2g\	-ve	2dd\	-ve
!LO:LB:g=original	!	!	!	!	!	!	!
=24	=24	=24	=24	=24	=24	=24	=24
(2C/	ne-	1c	ne-	1g	ne-	1ee	ne-
2BB-/)	.	.	.	.	.	.	.
2AA/	-xu	2c\	-xu	2a\	-xu	2ff\	-xu
=25	=25	=25	=25	=25	=25	=25	=25
(2BB-/	cri-	(2d\	cri-	1g	cri-	(4ffL\	cri-
.	.	.	.	.	.	4ddJ\)	.
2C/)	.	2c\)	.	.	.	1ee	-mi-
2C/	-mi-	2c\	-mi-	2g\	-mi-	.	.
!	!	!	!	!	!	!LO:LB:g=original	!
=26	=26	=26	=26	=26	=26	=26	=26
!	!	!	!	!LO:TX:t=P:problem=pojedyncza kreska taktowa	!	!	!
1.F 1.FF	-nis	1.c	-nis	1.a	-nis	1.ff	-nis.
!	!	!	!	!LO:LB:g=original	!	!	!
=27||	=27||	=27||	=27||	=27||	=27||	=27||	=27||
2F\	hic	2A\	hic	2a\	hic	2cc\	hic
2F\	nem-	2c\	nem-	2a\	nem-	2ff\	nem-
2C/	-pe	2c\	-pe	2g\	-pe	2ee\	-pe
=28	=28	=28	=28	=28	=28	=28	=28
(2F\	mun-	1.c	mun-	(2a\	mun-	(2ff\	mun-
2G\)	.	.	.	2g\)	.	4eeL\	.
.	.	.	.	.	.	4ddJ\)	.
2A\	-di	.	.	2f\	-di	2cc\	-di
=29	=29	=29	=29	=29	=29	=29	=29
(2B-\	gau-	2f\	-di	(2a\	gau-	(4ddL\	gau-
.	.	.	.	.	.	4ccJ\)	.
2c\)	.	2f\	gau-	2g\)	.	1b-	-di-
2C/	-di-	2e\	-di-	2f\	-di-	.	.
=30	=30	=30	=30	=30	=30	=30	=30
1.F	-a.	1.f	-a	1.a	-a	1a	-a
.	.	.	.	.	.	2r	.
!	!	!LO:LB:g=original	!	!	!	!	!
=31	=31	=31	=31	=31	=31	=31	=31
2F\	et	2c\	et	2a\	et	2a\	et
2D/	blan-	2d\	blan-	2f\	blan-	2bn\	blan-
2D/	-da	2d\	-da	2f\	-da	2b\	-da
!LO:LB:g=original	!	!	!	!	!	!	!
=32	=32	=32	=32	=32	=32	=32	=32
1C	frau-	(2.e\	frau-	(2.e\	frau-	(2.cc\	frau-
.	.	4d\)	.	4f\)	.	4dd\)	.
2C/	-dum	2c\	-dum	2g\	-dum	2ee\	-dum
!	!	!	!	!LO:LB:g=original	!	!LO:LB:g=original	!
=33	=33	=33	=33	=33	=33	=33	=33
(2F\	pa-	1c	pa-	(2a\	pa-	(4ffL\	pa-
.	.	.	.	.	.	4eeJ\)	.
2G\)	.	.	.	2g\)	.	1dd	-bu-
2GG/	-bu-	2Bn\	bu-	2g\	-bu-	.	.
=34	=34	=34	=34	=34	=34	=34	=34
1.C	-la	1c	-la	1.g	-la.	1cc	-la
.	.	2r	.	.	.	2r	.
=35	=35	=35	=35	=35	=35	=35	=35
2A\	in	2e\	im-	2a\	im-	2cc#X\	im-
2A\	bu-	2e\	-bu-	2a\	-bu-	2cc#\	-bu-
2G\	-ta	2e\	-ta	2a\	-ta	2cc#\	-ta
=36	=36	=36	=36	=36	=36	=36	=36
1F	fel-	1d	fel-	1a	fel-	1dd	fel-
2E\	le	2c#X\	-le	2g\	-le	2ee\	-le
=37	=37	=37	=37	=37	=37	=37	=37
(2.D\	de-	1d	de-	(2.f\	de-	1ff	de-
4E\)	.	.	.	4g\)	.	.	.
(4F\	-pu-	2d\	-pu-	(4a\	-pu-	2ff\	-pu-
4G\)	.	.	.	4f\)	.	.	.
=38	=38	=38	=38	=38	=38	=38	=38
1.A	-tans	1.c#X	-tans	1.e	-tans	1.ee	-tans
!LO:LB:g=original	!	!LO:LB:g=original	!	!LO:LB:g=original	!	!	!
=39	=39	=39	=39	=39	=39	=39	=39
2A\	per-	2e\	per	2e\	per-	2a\	per-
2G\	-ve-	2e\	ve-	2g\	-ve-	2bn\	-ve-
2G\	-nit	2e\	-nit	2a\	-nit	2cc#X\	-nit
!	!	!	!	!	!	!LO:LB:g=original	!
=40	=40	=40	=40	=40	=40	=40	=40
(2.F\	ad	1.f	ad	(2.f\	ad	(2.dd\	ve-
4E\	.	.	.	4g\	.	4ee\)	.
2D\)	.	.	.	2a\)	.	2ff\	-nit
=41	=41	=41	=41	=41	=41	=41	=41
2G\	ce-	2d\	ce-	(4g\	ce-	4ee\	ad
.	.	.	.	4f\)	.	4dd\	ce-
2A\	-le-	2.e\	-le-	2a\	-le-	2cc#X\	-le-
2AA/	-sti-	.	.	2a\	-sti-	2cc#\	-sti-
.	.	4e\	-sti-	.	.	.	.
=42	=42	=42	=42	=42	=42	=42	=42
1.D	-a.	1.f	-a	1.a	-a	1dd	-a
!LO:TX:b:t=V&colon;S&colon;	!	!	!	!	!	!	!
.	.	.	.	.	.	2r	.
!LO:PB:g=original	!	!	!	!	!	!	!
=43	=43	=43	=43	=43	=43	=43	=43
2F\	im-	2f\	im-	2a\	im-	2ccn\	im-
2F\	-bu-	2f\	-bu-	2a\	-bu-	2cc\	-bu-
2F\	-ta	2f\	-ta	2a\	-ta	2ff\	-ta
=44	=44	=44	=44	=44	=44	=44	=44
1B-	fel-	1f	fel-	1b-	fel-	1dd	fel-
2F\	-le	2f\	-le	2a\	-le	2cc\	-le
=45	=45	=45	=45	=45	=45	=45	=45
(2G\	de-	1f	de-	(4g\	de-	(4b-XL\	de-
.	.	.	.	4f\)	.	4aJ\)	.
2A\)	.	.	.	1f	-pu-	(2.a\	-pu-
2B-\	-pu-	2d\	-pu-	.	.	.	.
.	.	.	.	.	.	4g\)	.
!	!	!	!	!LO:LB:g=original	!	!LO:LB:g=original	!
=46	=46	=46	=46	=46	=46	=46	=46
1.c	-tans	1.e	-tans	1.e	-tans	1g	-tans
.	.	.	.	.	.	2r	.
!	!	!LO:LB:g=original	!	!	!	!	!
=47	=47	=47	=47	=47	=47	=47	=47
2F\	per-	2A\	per-	2f\	per-	2cc\	per-
2A\	-ve-	2A\	-ve-	2f\	-ve-	2cc\	-ve-
2F\	-nit	2A\	-nit	2f\	-nit	2cc\	-nit
=48	=48	=48	=48	=48	=48	=48	=48
(2BB-/	ve-	1B-X	ve-	1f	ve-	1dd	ve-
2D/)	.	.	.	.	.	.	.
2BB-/	-nit	2B-\	-nit	2f\	-nit	2dd\	-nit
=49	=49	=49	=49	=49	=49	=49	=49
2GG/	per	2Bn\	per-	2g\	per-	2dd\	per-
!LO:SIC:v:s=BBn	!	!	!	!	!	!	!
2BB-/	ve-	2B\	-ve-	2g\	-ve-	2dd\	-ve-
2GG/	-nit	2B\	-nit	2g\	-nit	2dd\	-nit
!LO:LB:g=original	!	!	!	!	!	!	!
=50	=50	=50	=50	=50	=50	=50	=50
(2C/	ad	1c	ad	1g	ad	1ee	ve-
2BB-/)	.	.	.	.	.	.	.
2AA/	ce-	2c\	ce-	2a\	ce-	2ff\	-nit
=51	=51	=51	=51	=51	=51	=51	=51
2BB-/	-le-	2d\	-le-	1g	-le-	4ff\	ad-
.	.	.	.	.	.	4dd\	-ce-
2C/	.	2.c\	.	.	.	2ee\	-le-
2C/	-sti-	.	.	2g\	-sti-	2ee\	-sti-
.	.	4c\	-si-	.	.	.	.
!	!	!	!	!	!	!LO:LB:g=original	!
=52	=52	=52	=52	=52	=52	=52	=52
1F 1FF	-a.	1.c	-a.	1.a	-a.	1.ff	-a.
!LO:TX:b:t=Omni Die.	!	!	!	!	!	!	!
2ryy	.	.	.	.	.	.	.
==	==	==	==	==	==	==	==
*-	*-	*-	*-	*-	*-	*-	*-
!!!system-decoration: [(s1,s2,s3,s4)]
!!!ENC: Marta Lawrence
!!!END: 2021-02-12
!!!ENC: Marcin Jachim
!!!END: 2021-01-31
!!!YEC: Copyright 2022 Narodowy Instytut Fryderyka Chopina (https://polishscores.org)
!!!YEM: Licence CC BY 4.0 (https://creativecommons.org/licenses/by/4.0)
